icon-themes/sifr_svg/cmd/ar/sc_numberingstart.svg

<svg viewBox="0 0 16 16" xmlns="http://www.w3.org/2000/svg"><g fill="#555753"><path d="m2 10v2h8v-2zm11 0c0 .552285-.447715 1-1 1v1h1v3h1v-5zm-7 3v2h4v-2z"/><path d="m2 2v2h8v-2zm11.5 0c-.828427 0-1.5.6715729-1.5 1.5h1c0-.276142.223858-.5.5-.5s.5.223858.5.5c0 .137769-.030371.2084244-.087891.2871094l-1.912109 2.3925781v.8203125h3v-1h-1.601562l1.261718-1.5957031c.150551-.164148.339844-.4311289.339844-.9042969 0-.8284271-.671573-1.5-1.5-1.5zm-7.5 3v2h4v-2z" opacity=".35"/></g></svg>

<svg xmlns="http://www.w3.org/2000/svg" viewBox="0 0 16 16">
  <path
     style="fill:#555753"
     d="M 2 10 L 2 12 L 10 12 L 10 10 L 2 10 z M 13 10 C 13 10.552285 12.552285 11 12 11 L 12 12 L 13 12 L 13 15 L 14 15 L 14 10 L 13 10 z M 6 13 L 6 15 L 10 15 L 10 13 L 6 13 z "
     />
  <path
     style="opacity:0.35;fill:#555753"
     d="M 2 2 L 2 4 L 10 4 L 10 2 L 2 2 z M 13.5 2 C 12.671573 2 12 2.6715729 12 3.5 L 13 3.5 C 13 3.223858 13.223858 3 13.5 3 C 13.776142 3 14 3.223858 14 3.5 C 14 3.637769 13.969629 3.7084244 13.912109 3.7871094 L 12 6.1796875 L 12 7 L 15 7 L 15 6 L 13.398438 6 L 14.660156 4.4042969 C 14.810707 4.2401489 15 3.973168 15 3.5 C 15 2.6715729 14.328427 2 13.5 2 z M 6 5 L 6 7 L 10 7 L 10 5 L 6 5 z "
     />
</svg>
